img/HTML-Skeleton-Toolbar.svg

<?xml version="1.0" encoding="UTF-8" standalone="no"?>
<!-- Created with Inkscape (http://www.inkscape.org/) -->

<svg
   xmlns:dc="http://purl.org/dc/elements/1.1/"
   xmlns:cc="http://creativecommons.org/ns#"
   xmlns:rdf="http://www.w3.org/1999/02/22-rdf-syntax-ns#"
   xmlns:svg="http://www.w3.org/2000/svg"
   xmlns="http://www.w3.org/2000/svg"
   xmlns:sodipodi="http://sodipodi.sourceforge.net/DTD/sodipodi-0.dtd"
   xmlns:inkscape="http://www.inkscape.org/namespaces/inkscape"
   width="24"
   height="24"
   id="svg2"
   version="1.1"
   inkscape:version="0.48.4 r9939"
   sodipodi:docname="HTML-Skeleton-Toolbar.svg">
  <title
     id="title4007">HTML Skeleton Toolbar Icon</title>
  <defs
     id="defs4" />
  <sodipodi:namedview
     id="base"
     pagecolor="#ffffff"
     bordercolor="#666666"
     borderopacity="1.0"
     inkscape:pageopacity="0.0"
     inkscape:pageshadow="2"
     inkscape:zoom="16"
     inkscape:cx="6.9460357"
     inkscape:cy="13.757182"
     inkscape:document-units="px"
     inkscape:current-layer="layer2"
     showgrid="false"
     inkscape:window-width="1366"
     inkscape:window-height="705"
     inkscape:window-x="-8"
     inkscape:window-y="-8"
     inkscape:window-maximized="1" />
  <metadata
     id="metadata7">
    <rdf:RDF>
      <cc:Work
         rdf:about="">
        <dc:format>image/svg+xml</dc:format>
        <dc:type
           rdf:resource="http://purl.org/dc/dcmitype/StillImage" />
        <dc:title>HTML Skeleton Toolbar Icon</dc:title>
      </cc:Work>
    </rdf:RDF>
  </metadata>
  <g
     inkscape:groupmode="layer"
     id="layer2"
     inkscape:label="Layer"
     style="display:inline">
    <path
       style="fill:#bababa;fill-opacity:1;stroke:none"
       d="M 5.1875 3 C 3.9781363 3 3 3.9781364 3 5.1875 L 3 18.8125 C 3 20.021864 3.9781363 21 5.1875 21 L 18.8125 21 C 20.021864 21 21 20.021864 21 18.8125 L 21 5.1875 C 21 3.9781364 20.021864 3 18.8125 3 L 5.1875 3 z M 13.84375 5.53125 L 15.71875 5.53125 L 11.03125 17.8125 L 9.21875 17.8125 L 13.84375 5.53125 z M 9.15625 8.375 L 9.09375 10.1875 L 5.5 12.1875 L 8.84375 14.1875 L 8.8125 16.03125 L 3.375 12.65625 L 3.375 11.78125 L 9.15625 8.375 z M 14.9375 8.375 L 20.6875 11.78125 L 20.6875 12.65625 L 15.25 16.03125 L 15.21875 14.1875 L 18.59375 12.1875 L 15 10.1875 L 14.9375 8.375 z "
       id="rect3998" />
    <text
       xml:space="preserve"
       style="font-size:8px;font-style:normal;font-variant:normal;font-weight:normal;font-stretch:normal;line-height:125%;letter-spacing:0px;word-spacing:0px;fill:#000000;fill-opacity:1;stroke:none;font-family:Source Code Pro;-inkscape-font-specification:Source Code Pro"
       x="-6.625"
       y="14.875"
       id="text3894"
       sodipodi:linespacing="125%"><tspan
         sodipodi:role="line"
         id="tspan3896"
         x="-6.625"
         y="14.875"></tspan></text>
  </g>
</svg>

<?xml version="1.0" encoding="utf-8"?>
<!DOCTYPE svg PUBLIC "-//W3C//DTD SVG 1.1//EN" "http://www.w3.org/Graphics/SVG/1.1/DTD/svg11.dtd">
<svg version="1.1"
	 id="svg2" xmlns:rdf="http://www.w3.org/1999/02/22-rdf-syntax-ns#" xmlns:svg="http://www.w3.org/2000/svg" xmlns:sodipodi="http://sodipodi.sourceforge.net/DTD/sodipodi-0.dtd"
	 xmlns="http://www.w3.org/2000/svg" xmlns:xlink="http://www.w3.org/1999/xlink" x="0px" y="0px" viewBox="0 0 24 24"
	 enable-background="new 0 0 24 24" xml:space="preserve">
<title>HTML Skeleton Toolbar Icon</title>
<g>
	<path id="rect3998" fill="#BABABA" d="M5.2,3C4,3,3,4,3,5.2v13.6C3,20,4,21,5.2,21h13.6c1.2,0,2.2-1,2.2-2.2V5.2C21,4,20,3,18.8,3
		H5.2z M13.8,5.5h1.9L11,17.8H9.2L13.8,5.5z M9.2,8.4l-0.1,1.8l-3.6,2l3.3,2l0,1.8l-5.4-3.4v-0.9L9.2,8.4z M14.9,8.4l5.8,3.4v0.9
		L15.3,16l0-1.8l3.4-2l-3.6-2L14.9,8.4z"/>
</g>
</svg>
